fs/comment_multiple_20_regular.svg

<svg viewBox="0 0 20 20" fill="none" xmlns="http://www.w3.org/2000/svg" height="1em" width="1em">
  <path d="M6.5 2C5.27577 2 4.25706 2.87996 4.04188 4.04188C2.87996 4.25706 2 5.27577 2 6.5V13.5C2 14.8807 3.11929 16 4.5 16H5V17.0284C5 17.8418 5.91937 18.3149 6.58124 17.8421L9.16024 16H13.5C14.8807 16 16 14.8807 16 13.5V12.95C17.1411 12.7184 18 11.7095 18 10.5V5.5C18 3.567 16.433 2 14.5 2H6.5ZM13.5 15H8.83978L6 17.0284V15H4.5C3.67157 15 3 14.3284 3 13.5V6.5C3 5.67157 3.67157 5 4.5 5H13.5C14.3284 5 15 5.67157 15 6.5V13.5C15 14.3284 14.3284 15 13.5 15ZM13.5 4H5.08535C5.29127 3.4174 5.84689 3 6.5 3H14.5C15.8807 3 17 4.11929 17 5.5V10.5C17 11.1531 16.5826 11.7087 16 11.9146V6.5C16 5.11929 14.8807 4 13.5 4Z" fill="#212121"/>
</svg>

<svg viewBox="0 0 20 20" fill="none" xmlns="http://www.w3.org/2000/svg" height="1em" width="1em">
  <path d="M6.5 2a2.5 2.5 0 0 0-2.458 2.042A2.5 2.5 0 0 0 2 6.5v7A2.5 2.5 0 0 0 4.5 16H5v1.028a1 1 0 0 0 1.581.814L9.161 16H13.5a2.5 2.5 0 0 0 2.5-2.5v-.55a2.5 2.5 0 0 0 2-2.45v-5A3.5 3.5 0 0 0 14.5 2h-8Zm7 13H8.84L6 17.028V15H4.5A1.5 1.5 0 0 1 3 13.5v-7A1.5 1.5 0 0 1 4.5 5h9A1.5 1.5 0 0 1 15 6.5v7a1.5 1.5 0 0 1-1.5 1.5Zm0-11H5.085A1.5 1.5 0 0 1 6.5 3h8A2.5 2.5 0 0 1 17 5.5v5a1.5 1.5 0 0 1-1 1.415V6.5A2.5 2.5 0 0 0 13.5 4Z" fill="#212121"/>
</svg>
